!!!!SEGMENT: pl-wtm--r-259-m--003_moniuszko-stanislaw--msza-graduale.krn
!!!cenid: 18xx:2529
!!!COM: Moniuszko, Stanisław
!!!COM-rismid: pe30008351
!!!CDT: 1819/05/05-1872/06/04
!!!CNT: Polish
!!!OPR: Msza
!!!OTL: Graduale
!!!OMV: 003
!!!PDT:
!!!AGN: Sacred; Mass
!!!SMS-siglum: PL-Wtm
!!!SMS-shelfmark: R 259/M
!!!SMS-shelfwork: 001-003 M
!!!SMS-variant:
!!!SMS-altvar:
!!!NIFC-rismid: 1001095367
!!!URL-scan: http://repozytorium.nifc.pl/skany/pl-wtm-nut--r259m
!!!ONB-nifc: UWAGA: części Mszy: 1. Kyrie, 2. Gloria, 3. Graduale, 4. Credo, 5. Offertorium,
**kern	**dynam	**kern	**dynam	**kern	**dynam	**kern	**dynam	**kern	**dynam	**kern	**kern	**dynam
*part7	*part7	*part6	*part6	*part5	*part5	*part4	*part4	*part3	*part3	*part2	*part1	*part1
*staff7	*	*staff6	*	*staff5	*	*staff4	*	*staff3	*	*staff2	*staff1	*
*Icbass	*	*Icello	*	*Iviola	*	*Ivioln	*	*Ivioln	*	*Iorgan	*Iorgan	*
*I"cbs.	*	*I"Vceli	*	*I"Vla.	*	*I"V.2	*	*I"V. 1.	*	*I"[Organo.]	*I"[Organo.]	*
*clefF4	*	*clefC4	*	*clefC3	*	*clefG2	*	*clefG2	*	*clefF4	*clefG2	*
*Trd0c0	*	*	*	*	*	*	*	*	*	*	*	*
*k[b-e-a-]	*	*k[b-e-a-]	*	*k[b-e-a-]	*	*k[b-e-a-]	*	*k[b-e-a-]	*	*k[b-e-a-]	*k[b-e-a-]	*
*E-:	*	*E-:	*	*E-:	*	*E-:	*	*E-:	*	*E-:	*E-:	*
*M3/4	*	*M3/4	*	*M3/4	*	*M3/4	*	*M3/4	*	*M3/4	*M3/4	*
=1	=1	=1	=1	=1	=1	=1	=1	=1	=1	=1	=1	=1
*all\right	*	*all\right	*	*all\right	*	*all\right	*	*all\right	*	*all\right	*all\right	*
!	!	!	!	!	!	!	!	!	!	!LO:TX:b:i:t=senza ped..	!LO:TX:a:i:t=1. Klawiatura ppp.\n2. Klaw&colon; p.	!
2.r	.	(4g\	.	2.r	.	2.r	.	2.r	.	2.r	4g/	p
.	.	8f\L	.	.	.	.	.	.	.	.	8f/L	.
.	.	8e-\)	.	.	.	.	.	.	.	.	8e-/	.
.	.	8G\	.	.	.	.	.	.	.	.	8G/	.
.	.	8A-\J	.	.	.	.	.	.	.	.	8A-/J	.
=2	=2	=2	=2	=2	=2	=2	=2	=2	=2	=2	=2	=2
4r	.	(4B-\	.	4r	.	4r	.	4r	.	4r	(>4B-/	.
4r	p	4c\)	.	4r	.	4r	.	4r	.	4r	4c 4An</	.
(4B-\	.	(4d\	.	(4A-/	.	(4d/	.	8f/L	.	4BB-\	4d 4A-X</)	.
.	.	.	.	.	.	.	.	8b-/J	.	.	.	.
=3	=3	=3	=3	=3	=3	=3	=3	=3	=3	=3	=3	=3
4E-\)	.	4e-\)	.	4G/)	.	4e-/)	.	4e-/	.	2.EE-/	8e-L 8G</	.
.	.	.	.	.	.	.	.	.	.	.	8B-/	.
4r	.	4r	.	4r	.	4r	.	4r	.	.	8e-/	.
.	.	.	.	.	.	.	.	.	.	.	8b-/	.
4r	.	4r	.	4r	.	4r	.	4r	.	.	8g/	.
.	.	.	.	.	.	.	.	.	.	.	8e-/J	.
=4	=4	=4	=4	=4	=4	=4	=4	=4	=4	=4	=4	=4
2.r@	.	2.r@	.	2.r@	.	2.r@	.	2.r@	.	2.FF/	8r	.
.	.	.	.	.	.	.	.	.	.	.	8A-/L	.
.	.	.	.	.	.	.	.	.	.	.	8e-/	.
.	.	.	.	.	.	.	.	.	.	.	8a-/	.
.	.	.	.	.	.	.	.	.	.	.	8c/	.
.	.	.	.	.	.	.	.	.	.	.	8e-/J	.
=5	=5	=5	=5	=5	=5	=5	=5	=5	=5	=5	=5	=5
!	!	!	!	!	!	!	!	!	!	!LO:N:vis=2	!	!
2.ryy	.	2.ryy	.	2.ryy	.	2.ryy	.	2.ryy	.	2.BB-/	8d/L	.
.	.	.	.	.	.	.	.	.	.	.	8B-/	.
.	.	.	.	.	.	.	.	.	.	.	8d/	.
.	.	.	.	.	.	.	.	.	.	.	8c/	.
.	.	.	.	.	.	.	.	.	.	.	8d/	.
.	.	.	.	.	.	.	.	.	.	.	8f/J	.
=6	=6	=6	=6	=6	=6	=6	=6	=6	=6	=6	=6	=6
2.ryy	.	2.ryy	.	2.ryy	.	2.ryy	.	2.ryy	.	2.E-/	8e-/L	.
.	.	.	.	.	.	.	.	.	.	.	8B-/	.
.	.	.	.	.	.	.	.	.	.	.	8g/	.
.	.	.	.	.	.	.	.	.	.	.	8e-/	.
.	.	.	.	.	.	.	.	.	.	.	8B-/	.
.	.	.	.	.	.	.	.	.	.	.	8g/J	.
=7	=7	=7	=7	=7	=7	=7	=7	=7	=7	=7	=7	=7
!	!	!	!	!	!	!	!	!	!	!LO:N:vis=2	!	!
2.ryy	.	2.ryy	.	2.ryy	.	2.ryy	.	2.ryy	.	2.D/	8f/L	.
.	.	.	.	.	.	.	.	.	.	.	8B-/	.
.	.	.	.	.	.	.	.	.	.	.	8b-/	.
.	.	.	.	.	.	.	.	.	.	.	8B-/	.
.	.	.	.	.	.	.	.	.	.	.	8f/	.
.	.	.	.	.	.	.	.	.	.	.	8B-/J	.
=8	=8	=8	=8	=8	=8	=8	=8	=8	=8	=8	=8	=8
2.ryy	.	2.ryy	.	2.ryy	.	2.ryy	.	2.r	.	2.C/	8gL 8f/	.
.	.	.	.	.	.	.	.	.	.	.	8B-/	.
.	.	.	.	.	.	.	.	.	.	.	8b- 8f/	.
.	.	.	.	.	.	.	.	.	.	.	8B-/	.
.	.	.	.	.	.	.	.	.	.	.	8g 8e-/	.
.	.	.	.	.	.	.	.	.	.	.	8B-/J	.
!!LO:PB:g=original
=9	=9	=9	=9	=9	=9	=9	=9	=9	=9	=9	=9	=9
2.ryy	.	2.ryy	.	2.ryy	.	2.ryy	.	2.ryy	.	2.FF/	8a-L 8c/	.
.	.	.	.	.	.	.	.	.	.	.	8e-/	.
.	.	.	.	.	.	.	.	.	.	.	8a- 8f/	.
.	.	.	.	.	.	.	.	.	.	.	8e-/	.
.	.	.	.	.	.	.	.	.	.	.	8a- 8f/	.
.	.	.	.	.	.	.	.	.	.	.	8c/J	.
=10	=10	=10	=10	=10	=10	=10	=10	=10	=10	=10	=10	=10
2.ryy	.	2.ryy	.	2.ryy	.	2.ryy	.	2.ryy	.	2.BB-/	8gL 8e-/	.
.	.	.	.	.	.	.	.	.	.	.	8B-/	.
.	.	.	.	.	.	.	.	.	.	.	8f 8d/	.
.	.	.	.	.	.	.	.	.	.	.	8b-/	.
.	.	.	.	.	.	.	.	.	.	.	8a- 8f/	.
.	.	.	.	.	.	.	.	.	.	.	8d/J	.
=11	=11	=11	=11	=11	=11	=11	=11	=11	=11	=11	=11	=11
2.ryy	.	2.ryy	.	2.ryy	.	2.ryy	.	2.ryy	.	2.E-/	8gL 8e-/	.
.	.	.	.	.	.	.	.	.	.	.	8B-/	.
.	.	.	.	.	.	.	.	.	.	.	8g 8e-/	.
.	.	.	.	.	.	.	.	.	.	.	8b-/	.
.	.	.	.	.	.	.	.	.	.	.	8g 8e-/	.
.	.	.	.	.	.	.	.	.	.	.	8B-/J	.
=12	=12	=12	=12	=12	=12	=12	=12	=12	=12	=12	=12	=12
*	*	*	*	*	*	*	*	*	*	*	*^	*
2.ryy	.	2.ryy	.	2.ryy	.	2.ryy	.	2.ryy	.	2.BBn/	2.a-/	8f\L	.
.	.	.	.	.	.	.	.	.	.	.	.	8e-\	.
.	.	.	.	.	.	.	.	.	.	.	.	8d\	.
.	.	.	.	.	.	.	.	.	.	.	.	8e-\	.
.	.	.	.	.	.	.	.	.	.	.	.	8f\	.
.	.	.	.	.	.	.	.	.	.	.	.	8d\J	.
*	*	*	*	*	*	*	*	*	*	*	*v	*v	*
=13	=13	=13	=13	=13	=13	=13	=13	=13	=13	=13	=13	=13
2.ryy	.	2.ryy	.	2.ryy	.	2.ryy	.	2.ryy	.	2.C/	8gL 8e-/	.
.	.	.	.	.	.	.	.	.	.	.	8c/	.
.	.	.	.	.	.	.	.	.	.	.	8g 8e-/	.
.	.	.	.	.	.	.	.	.	.	.	8c/	.
.	.	.	.	.	.	.	.	.	.	.	8g 8e-/	.
.	.	.	.	.	.	.	.	.	.	.	8a-J 8c/	.
=14	=14	=14	=14	=14	=14	=14	=14	=14	=14	=14	=14	=14
*	*	*	*	*	*	*	*	*	*	*	*^	*
2.ryy	.	2.ryy	.	2.ryy	.	2.ryy	.	2.ryy	.	(2.En (2.BB-/	(2a-/	8d-X\L	.
.	.	.	.	.	.	.	.	.	.	.	.	8c\	.
.	.	.	.	.	.	.	.	.	.	.	.	8B-\	.
.	.	.	.	.	.	.	.	.	.	.	.	8c\	.
.	.	.	.	.	.	.	.	.	.	.	4g/)	8d-\	.
.	.	.	.	.	.	.	.	.	.	.	.	8B-\J	.
=15	=15	=15	=15	=15	=15	=15	=15	=15	=15	=15	=15	=15	=15
2.ryy	.	2.ryy	.	2.ryy	.	2.ryy	.	2.ryy	.	4F 4AA-/))	8f/L	4ryy	.
.	.	.	.	.	.	.	.	.	.	.	8g 8c/	.	.
.	.	.	.	.	.	.	.	.	.	4F\	8a- 8f/	4ryy	.
.	.	.	.	.	.	.	.	.	.	.	8b- 8c/	.	.
.	.	.	.	.	.	.	.	.	.	8B-L 8BB-\	8cc/	4a-\	.
.	.	.	.	.	.	.	.	.	.	8A-J 8AA-\	8ddJ 8f/	.	.
=16	=16	=16	=16	=16	=16	=16	=16	=16	=16	=16	=16	=16	=16
*	*	*	*	*	*	*	*	*	*	*	*	*^	*
2.ryy	.	2.ryy	.	2.ryy	.	2.ryy	.	2.ryy	.	4G 4GG\	4ee-/	8ee-\L	4e-\	.
.	.	.	.	.	.	.	.	.	.	.	.	8dd\J	.	.
.	.	.	.	.	.	.	.	.	.	4A- 4AA-\	4ff/	4cc 4f\	4ryy	.
.	.	.	.	.	.	.	.	.	.	4An 4AAn\	4ff#X/	4ee- 4cc 4f#X\	4rgyy	.
*	*	*	*	*	*	*	*	*	*	*	*	*v	*v	*
=17	=17	=17	=17	=17	=17	=17	=17	=17	=17	=17	=17	=17	=17
*	*	*	*	*	*	*	*	*	*	*^	*	*	*
*	*	*	*	*	*	*	*	*	*	*	*2\right	*	*	*
2.ryy	.	2.ryy	.	2.ryy	.	2.ryy	.	2.ryy	.	4B-/	2.BB-\	16gg/LL	4b- 4g\	.
.	.	.	.	.	.	.	.	.	.	.	.	16ee-/	.	.
.	.	.	.	.	.	.	.	.	.	.	.	16b-/	.	.
.	.	.	.	.	.	.	.	.	.	.	.	16g/JJ	.	.
.	.	.	.	.	.	.	.	.	.	4F/	.	[4a-/	4c\	.
.	.	.	.	.	.	.	.	.	.	4B-/	.	4a-;/]	8d\L	.
.	.	.	.	.	.	.	.	.	.	.	.	.	8f\J	.
*	*	*clefF4	*	*	*	*	*	*	*	*	*	*	*	*
!!LO:PB:g=original
=18	=18	=18	=18	=18	=18	=18	=18	=18	=18	=18	=18	=18	=18	=18
2C/	.	2C/	p	8r	.	4.e-/	p	(4g/	p	8r	2C\	4g/	4.e-\	.
.	.	.	.	(8G/L	p	.	.	.	.	(>8G/L	.	.	.	.
.	.	.	.	8F/	.	.	.	4a-/	.	8F/	.	4a-/	.	.
.	.	.	.	8E-/)	.	(8e-/L	.	.	.	8E-/J)	.	.	8e-\L	.
4FF#X/	.	4FF#X/	.	8D/	.	8d/)	.	4an/)	.	4ryy	4FF#X\	4an/	8d\	.
.	.	.	.	8C/J	.	8c/J	.	.	.	.	.	.	8c\J	.
=19	=19	=19	=19	=19	=19	=19	=19	=19	=19	=19	=19	=19	=19	=19
4GG/	.	4GG/	.	8.D/L	.	4B-/	.	(8b-/L	.	8.E-/L	4GG\	8b-/L	4B-\	.
.	.	.	.	.	.	.	.	8e-/J)	.	.	.	8e-/J	.	.
.	.	.	.	32C/LL	.	.	.	.	.	32D/LL	.	.	.	.
.	.	.	.	32D/JJJ	.	.	.	.	.	32E-/JJJ	.	.	.	.
4FFn/	.	4FFn/	.	4E-/	.	4c/	.	(4a-/	.	2F/	4FFn\	2a-/	4c\	.
8BB-/	.	8BB-/	.	4r	.	8d/	.	8f/)	.	.	4BB-\	.	4d\	.
8r	.	8r	.	.	.	8r	.	8r	.	.	.	.	.	ppp
*	*	*	*	*	*	*	*	*	*	*v	*v	*	*	*
=20	=20	=20	=20	=20	=20	=20	=20	=20	=20	=20	=20	=20	=20
!LO:TX:b:t=pizzi	!	!LO:TX:b:t=pizz	!	!	!	!	!	!	!	!	!	!	!
4E-\	.	4E-\	.	8r	.	8r	.	8r	.	2.B- 2.E-/	2.g/	2.e-\	.
!	!	!	!	!LO:TX:b:t=pizzi	!	!LO:TX:b:t=pizzi	!	!LO:TX:b:t=pizzi	!	!	!	!	!
.	.	.	.	8E-/L	.	8G/L	.	8B-/L	.	.	.	.	.
4r	.	4r	.	8G/	.	8B-/	.	8e-/	.	.	.	.	.
.	.	.	.	8B-/	.	8e-/	.	8g/	.	.	.	.	.
4r	.	4r	.	8e-/	.	8g/	.	8b-/	.	.	.	.	.
.	.	.	.	8g/J	.	8b-/J	.	8ee-/J	.	.	.	.	.
*	*	*	*	*	*	*	*	*	*	*	*v	*v	*
=21	=21	=21	=21	=21	=21	=21	=21	=21	=21	=21	=21	=21
!	!	!	!	!	!	!	!	!	!	!LO:N:vis=2	!LO:N:vis=2	!
4BB-/	.	4C\	.	8r	.	8r	.	8r	.	2.A- 2.C/	2.a- 2.e-/	.
.	.	.	.	8E-/L	.	8A-/L	.	8c/L	.	.	.	.
!LO:TX:a:t=col vcello//	!	!	!	!	!	!	!	!	!	!	!	!
4ryy	.	4r	.	8A-/	.	8c/	.	8e-/	.	.	.	.
.	.	.	.	8c/	.	8e-/	.	8a-/	.	.	.	.
4ryy	.	4r	.	8f/	.	8a-/	.	8cc/	.	.	.	.
.	.	.	.	8a-/J	.	8cc/J	.	8ee-/J	.	.	.	.
=22	=22	=22	=22	=22	=22	=22	=22	=22	=22	=22	=22	=22
4F\yy	.	4F\	.	8r	.	8r	.	8r	.	2F\	2a- 2f 2c/	.
.	.	.	.	8F/L	.	8A-/L	.	8c/L	.	.	.	.
4ryy	.	4r	.	8A-/	.	8c/	.	8f/	.	.	.	.
.	.	.	.	8c/	.	8f/	.	8a-/	.	.	.	.
4BB-/yy	.	4BB-/	.	8F/	.	8B-/	.	8d/	.	4B-\	4f 4d/	.
.	.	.	.	8B-/J	.	8A-/J	.	8f/J	.	.	.	.
=23	=23	=23	=23	=23	=23	=23	=23	=23	=23	=23	=23	=23
4E-\yy	.	4E-\	.	8r	.	8r	.	8r	.	2.B- 2.E-\	2.g 2.e-/	.
.	.	.	.	8E-/L	.	8G/L	.	8B-/L	.	.	.	.
4ryy	.	4r	.	8G/	.	8B-/	.	8e-/	.	.	.	.
.	.	.	.	8B-/	.	8e-/	.	8g/	.	.	.	.
4ryy	.	4r	.	8G/	.	8B-/	.	8e-/	.	.	.	.
.	.	.	.	8B-/J	.	8e-/J	.	8g/J	.	.	.	.
=24	=24	=24	=24	=24	=24	=24	=24	=24	=24	=24	=24	=24
4D\yy	.	4D\	.	8r	.	8r	.	8r	.	2.B- 2.D\	2.b- 2.f/	.
.	.	.	.	8F/L	.	8B-/L	.	8f/L	.	.	.	.
4ryy	.	4r	.	8B-/	.	8f/	.	8b-/	.	.	.	.
.	.	.	.	8f/	.	8b-/	.	8ff/	.	.	.	.
4ryy	.	4r	.	8B-/	.	8f/	.	8b-/	.	.	.	.
.	.	.	.	8f/J	.	8b-/J	.	8dd/J	.	.	.	.
=25	=25	=25	=25	=25	=25	=25	=25	=25	=25	=25	=25	=25
4C\yy	.	4C\	.	8r	.	8r	.	8r	.	2.B- 2.C\	2.b- 2.e-/	.
.	.	.	.	8B-/L	.	8e-/L	.	8g/L	.	.	.	.
4ryy	.	4r	.	8e-/	.	8g/	.	8b-/	.	.	.	.
.	.	.	.	8g/	.	8b-/	.	8ee-/	.	.	.	.
4ryy	.	4r	.	8B-/	.	8e-/	.	8g/	.	.	.	.
.	.	.	.	8e-/J	.	8g/J	.	8cc/J	.	.	.	.
!!LO:PB:g=original
=26	=26	=26	=26	=26	=26	=26	=26	=26	=26	=26	=26	=26
4F\yy	.	4F\	.	8r	.	8r	.	8r	.	2.c 2.F\	2.a- 2.e-/	.
.	.	.	.	8A-/L	.	8c/L	.	8f\L	.	.	.	.
4ryy	.	4r	.	8c/	.	8f/	.	8a-\	.	.	.	.
.	.	.	.	8f/	.	8a-/	.	8ee-\	.	.	.	.
4ryy	.	4r	.	8c/	.	8f/	.	8a-\	.	.	.	.
.	.	.	.	8f/J	.	8a-/J	.	8cc\J	.	.	.	.
=27	=27	=27	=27	=27	=27	=27	=27	=27	=27	=27	=27	=27
*	*	*	*	*	*	*	*	*	*	*	*^	*
*	*	*	*	*	*	*	*	*	*	*	*	*2\right	*
4BB-/yy	.	4BB-/	.	8r	.	8r	.	8r	.	2.F 2.BB-\	2.a-/	2.d\	.
.	.	.	.	8A-/L	.	8d/L	.	8f/L	.	.	.	.	.
4ryy	.	4r	.	8d/J	.	8f/J	.	8a-/	.	.	.	.	.
!	!	!	!	!LO:N:vis=4	!	!LO:N:vis=4	!	!	!	!	!	!	!
.	.	.	.	8f/	.	8a-/	.	8dd/	.	.	.	.	.
!	!	!	!	!LO:N:vis=4	!	!LO:N:vis=4	!	!	!	!	!	!	!
4ryy	.	4r	.	8B-/	.	8d/	.	8f/	.	.	.	.	.
!LO:TX:b:t=arco	!	!LO:TX:b:t=arco	!	!LO:N:vis=4	!	!LO:N:vis=4	!	!	!	!	!	!	!
.	.	.	.	8d/	.	8f/	.	8a-/J	.	.	.	.	.
=28	=28	=28	=28	=28	=28	=28	=28	=28	=28	=28	=28	=28	=28
*	*	*	*	*	*	*	*	*	*	*^	*	*	*
2.C-X/yy	.	2.C-X/	.	8r	.	8r	.	8r	.	2.A-/	2.F 2.E- 2.C-X\	2.a-/	2.f 2.e-\	.
.	.	.	.	8F/L	.	8A-/L	.	8e-/L	.	.	.	.	.	.
.	.	.	.	8B-/	.	8e-/	.	8a-/	.	.	.	.	.	.
.	.	.	.	8e-/	.	8a-/	.	8ee-/	.	.	.	.	.	.
.	.	.	.	8F/	.	8A-/	.	8e-/	.	.	.	.	.	.
.	.	.	.	8A-/J	.	8e-/J	.	8a-/J	.	.	.	.	.	.
*	*	*	*	*	*	*	*	*	*	*v	*v	*	*	*
=29	=29	=29	=29	=29	=29	=29	=29	=29	=29	=29	=29	=29	=29
4BB-/yy	.	4BB-/	.	8r	.	8r	.	8r	.	2.B- 2.BB-\	2.a-/	2.f\	.
.	.	.	.	8A-/L	.	8d/L	.	8f/L	.	.	.	.	.
4ryy	.	4r	.	8d/	.	8f/	.	8a-/	.	.	.	.	.
.	.	.	.	8f/	.	8a-/	.	8dd/	.	.	.	.	.
4ryy	.	4r	.	8A-/	.	8d/	.	8f/	.	.	.	.	.
!LO:TX:b:t=pizzi	!	!LO:TX:b:t=pizzi	!	!	!	!	!	!	!	!	!	!	!
.	.	.	.	8d/J	.	8f/J	.	8a-/J	.	.	.	.	.
*	*	*	*	*	*	*	*	*	*	*	*v	*v	*
=30	=30	=30	=30	=30	=30	=30	=30	=30	=30	=30	=30	=30
4BB-/yy	.	4BB-/	.	8r	.	8r	.	8r	.	2.G-X 2.BB-\	2.an 2.e-/	.
.	.	.	.	8G-X/L	.	8c/L	.	8e-/L	.	.	.	.
4ryy	.	4r	.	8c/	.	8e-/	.	8g-X/	.	.	.	.
.	.	.	.	8e-/	.	8g-X/	.	8cc/	.	.	.	.
4ryy	.	4ryy	.	8c/	.	8e-/	.	8g-/	.	.	.	.
.	.	.	.	8G-/J	.	8c/J	.	8e-/J	.	.	.	.
=31	=31	=31	=31	=31	=31	=31	=31	=31	=31	=31	=31	=31
*	*	*	*	*	*	*	*	*	*	*^	*^	*
4BB-/yy	.	4BB-/	.	8r	.	8r	.	8r	.	(2F/	4BB-\	(4b-/	2d\	.
.	.	.	.	8F/	.	8d/	.	8b-/	.	.	.	.	.	.
4BBn/yy	.	4BBn/	.	8r	.	8r	.	8r	.	.	4BBn\	4a-/	.	.
.	.	.	.	8F/	.	8d/	.	8a-/	.	.	.	.	.	.
4C/yy	.	4C/	.	8r	.	8r	.	8r	.	4E-/)	4C\	4g/)	4e-\	.
.	.	.	.	8E-/	.	8e-/	.	8g/	.	.	.	.	.	.
*	*	*	*	*	*	*	*	*	*	*v	*v	*	*	*
*	*	*	*	*	*	*	*	*	*	*	*v	*v	*
=32	=32	=32	=32	=32	=32	=32	=32	=32	=32	=32	=32	=32
4AA-/yy	.	4AA-/	.	4F/	.	4f 4c/	.	4cc\	.	4F 4AA-/	8f/L	.
.	.	.	.	.	.	.	.	.	.	.	8g 8c/	.
4ryy	.	4r	.	4r	.	4r	.	4r	.	4F\	8a- 8f/	.
.	.	.	.	.	.	.	.	.	.	.	8b- 8c/	.
8B-\Lyy	.	8B-\L	.	8B-/L	.	4f/	.	4f/	.	8B-L 8BB-\	8cc 8a-/	.
8A-\Jyy	.	8A-\J	.	8A-/J	.	.	.	.	.	8A-J 8AA-\	8ddJ 8f/	.
=33	=33	=33	=33	=33	=33	=33	=33	=33	=33	=33	=33	=33
*	*	*	*	*	*	*	*	*	*	*	*^	*
*	*	*	*	*	*	*	*	*	*	*	*	*^	*
4G\yy	.	4G\	.	4G/	.	4e-/	.	4b-\	.	4G 4GG\	4ee-/	8ee-\L	4e-\	.
.	.	.	.	.	.	.	.	.	.	.	.	8dd\J	.	.
4A-\yy	.	4A-\	.	4E-/	.	4e- 4c/	.	4f/	.	4A- 4AA-\	4ff/	4cc 4f\	4ryy	.
4An\yy	.	4An\	.	4E-/	.	4e- 4c/	.	4f#X/	.	4An 4AAn\	4ff#X/	4ee- 4f#X\	4rgyy	.
*	*	*	*	*	*	*	*	*	*	*	*	*v	*v	*
!!LO:PB:g=original
=34	=34	=34	=34	=34	=34	=34	=34	=34	=34	=34	=34	=34	=34
*	*	*	*	*	*	*	*	*	*	*^	*	*	*
4B-\yy	.	4B-\	.	4B-/	.	4f 4B-/	.	4g/	.	4B-/	2.BB-\	16gg/LL	8b- 8g\	.
.	.	.	.	.	.	.	.	.	.	.	.	16ee-/	.	.
.	.	.	.	.	.	.	.	.	.	.	.	16b-/	8r	.
.	.	.	.	.	.	.	.	.	.	.	.	16g/JJ	.	.
4BB-/yy	.	4BB-/	.	4d 4B-\	.	4f/	.	4a- 4B-/	.	4F/	.	4a- 4c/	4ryy	.
4r;yy	.	4r;	.	4r;	.	4r;	.	4r;	.	4B-/	.	4a-;/	8d\L	.
.	.	.	.	.	.	.	.	.	.	.	.	.	8f\J	.
*	*	*	*	*	*	*	*	*	*	*	*	*v	*v	*
=35	=35	=35	=35	=35	=35	=35	=35	=35	=35	=35	=35	=35	=35
!LO:TX:b:t=arco	!	!	!	!	!	!	!	!	!	!	!	!	!
!LO:TX:a:t=arco	!	!LO:TX:a:t=arco	!	!LO:TX:a:t=arco	!	!LO:TX:a:t=arco	!	!LO:TX:a:t=arco	!	!	!	!	!
8E-\	.	8E-\	.	8E-/	.	4.e- 4.G/	.	4.g 4.B-/	.	(<8EE-/L	2.EE-\	4.g 4.e-/	.
8r	.	4E-\	.	4E-/	.	.	.	.	.	8E-/	.	.	.
8E-\	.	.	.	.	.	.	.	.	.	8EE-/	.	.	.
8r	.	4E-\	.	4E-/	.	8e-/L	.	8g/L	.	8E-/	.	(8gL 8e-/	.
8E-\	.	.	.	.	.	8d/	.	8f/	.	8EE-/	.	8f 8d/	.
8r	.	8E-\	.	8E-/	.	8f/J	.	8a-/J	.	8E-/J)	.	8a-J 8f/)	.
=36	=36	=36	=36	=36	=36	=36	=36	=36	=36	=36	=36	=36	=36
*rep	*	*rep	*	*rep	*	*	*	*	*	*rep	*rep	*	*
!	!	!	!	!	!	!	!	!	!	!	!	!LO:S:s=2:note:problem:note-level slur	!
8E-\	.	8E-\	.	8E-/	.	(4a-/	.	(4cc (4d/	.	(<8EE-/L	2.EE-\	(4cc (4a- (4d/	.
8r	.	4E-\	.	4E-/	.	.	.	.	.	8E-/	.	.	.
8E-\	.	.	.	.	.	8g/)	.	8b- 8e-/))	.	8EE-/	.	8b-L) 8g) 8e-/)	.
!	!	!	!	!	!	!LO:TX:t=P:problem:mixed beam	!	!	!	!	!	!	!
8r	.	4E-\	.	4E-/	.	8g/L	.	8ee-\L	.	8E-/	.	(8ee- 8g/	.
8E-\	.	.	.	.	.	8f/	.	8dd\	.	8EE-/	.	8dd 8f/	.
8r	.	8E-\	.	8E-/	.	8dd\J	.	8ff\J	.	8E-/J)	.	8ffJ 8dd 8b-/)	.
*Xrep	*	*Xrep	*	*Xrep	*	*	*	*	*	*Xrep	*Xrep	*	*
=37	=37	=37	=37	=37	=37	=37	=37	=37	=37	=37	=37	=37	=37
*rep	*	*rep	*	*rep	*	*	*	*	*	*rep	*rep	*	*
8E-\	.	8E-\	.	8E-/	.	4.ff 4.dd\	.	4.aa- 4.cc\	.	(<8EE-/L	2.EE-\	(4.aa- 4.ff 4.dd [4.b-/	.
8r	.	4E-\	.	4E-/	.	.	.	.	.	8E-/	.	.	.
8E-\	.	.	.	.	.	.	.	.	.	8EE-/	.	.	.
!	!	!	!	!	!	!LO:TX:t=P:problem:mixed beam	!	!	!	!	!	!	!
8r	.	4E-\	.	4E-/	.	8ee-\L	.	8gg\L	.	8E-/	.	8ggL 8ee- 8b-/]	.
8E-\	.	.	.	.	.	8g/	.	8ee-\	.	8EE-/	.	8ee- 8g/	.
8r	.	8E-\	.	8E-/	.	8a-/J	.	8cc\J	.	8E-/J)	.	8ccJ 8a-/)	.
*Xrep	*	*Xrep	*	*Xrep	*	*	*	*	*	*Xrep	*Xrep	*	*
=38	=38	=38	=38	=38	=38	=38	=38	=38	=38	=38	=38	=38	=38
*	*	*	*	*	*	*	*	*	*	*	*	*^	*
*rep	*	*rep	*	*rep	*	*	*	*	*	*repy	*repy	*	*	*
!	!	!	!	!	!	!	!	!	!	!LO:TX:t=P:problem:brak znaku powtórzenia	!	!	!	!
8E-\	.	8E-\	.	8E-/	.	8g/L	.	8b-/L	.	(y<8EE-/Lyy	2.EE-\yy	(8b-L 8g/	4ryy	.
8r	.	4E-\	.	4E-/	.	8e-/J	.	8g/J	.	8E-/yy	.	8gJ 8e-/)	.	.
8E-\	.	.	.	.	.	4e-/	.	[4b- 4g/	.	8EE-/yy	.	[4b- 4g 4e- 4c/	4ryy	.
8r	.	4E-\	.	4E-/	.	.	.	.	.	8E-/yy	.	.	.	.
8E-\	.	.	.	.	.	4f/	.	8b-]L 8d/	.	8EE-/yy	.	8b-/L]	4f 4d\	.
8r	.	8E-\	.	8E-/	.	.	.	8a-/J	.	8E-/J)yy	.	8a-/J	.	.
*Xrep	*	*Xrep	*	*Xrep	*	*	*	*	*	*Xrep	*Xrep	*	*	*
=39	=39	=39	=39	=39	=39	=39	=39	=39	=39	=39	=39	=39	=39	=39
*2\right	*	*	*	*	*	*	*	*	*	*	*	*	*	*
2.E-\	.	8E-'\L	.	8E-'/L	.	4.e-/	.	4.g 4.B-/	.	8E-/L	2.EE-\	2.g 2.e-/	4r	.
.	.	8BB-'\	.	8B-'/	.	.	.	.	.	8BB-/	.	.	.	.
!	!	!	!	!	!	!	!	!	!	!LO:ART:color=red	!	!	!	!
.	.	8G'\	.	8G'/	.	.	.	.	.	8G/|<	.	.	2B-\	.
!	!	!	!	!	!	!	!	!	!	!LO:ART:color=red	!	!	!	!
.	.	8F'\	.	8F'/	.	8e-/L	.	8gL 8B-'/	.	8F/|<	.	.	.	.
!	!	!	!	!	!	!	!	!	!	!LO:ART:color=red	!	!	!	!
.	.	8E-'\	.	8E-'/	.	8e-/	.	8g 8B-'/	.	8E-/|<	.	.	.	.
!	!	!	!	!	!	!	!	!	!	!LO:ART:color=red	!	!	!	!
.	.	8D'\J	.	8D'/J	.	8e-/J	.	8gJ 8B-'/	.	8D/J|<	.	.	.	.
=40	=40	=40	=40	=40	=40	=40	=40	=40	=40	=40	=40	=40	=40	=40
!	!	!LO:ART:color=red	!	!LO:ART:color=red	!	!	!	!	!	!LO:S:color=red	!	!	!	!
!	!	!LO:S:color=red	!	!LO:S:color=red	!	!	!	!	!	!	!	!	!	!
2.D-X^\	.	(8D-X^'/L	.	(8D-X^'/L	.	2.f 2.c-X^/	.	2a-^/	.	(<8D-X/L	2.DD-X\	2a-/	2.f 2.c-X\	.
.	.	8C'/	.	8C'/	.	.	.	.	.	8C/	.	.	.	.
.	.	8D-'/)	.	8D-'/)	.	.	.	.	.	8D-/)	.	.	.	.
!	!	!	!	!	!	!	!	!	!	!LO:ART:color=red	!	!	!	!
.	.	8AA-'/	.	8A-'/	.	.	.	.	.	8A-/|<	.	.	.	.
!	!	!	!	!	!	!	!	!	!	!LO:ART:color=red	!	!	!	!
.	.	8FF'/	.	8F'/	.	.	.	4an/	.	8F/|<	.	4an/	.	.
!	!	!	!	!	!	!	!	!	!	!LO:ART:color=red	!	!	!	!
.	.	8DD-X'/J	.	8D-'/J	.	.	.	.	.	8D-/J|<	.	.	.	.
=41	=41	=41	=41	=41	=41	=41	=41	=41	=41	=41	=41	=41	=41	=41
!	!	!LO:TX:t=P:problem:mixed beam	!	!	!	!	!	!	!LO:ART:color=red	!	!	!	!	!
2.G-X\	.	8GG-X'/L	.	8G-X'/L	.	4.g-X 4.B-/	.	4.b-/	.	8G-X/L|<	2.GG-X\	2.b- 2.g-X/	2B-\	.
!	!	!	!	!	!	!	!	!	!	!LO:ART:color=red	!	!	!	!
.	.	8D-X'\	.	8D-X'/	.	.	.	.	.	8D-X/|<	.	.	.	.
!	!	!	!	!	!	!	!	!	!	!LO:ART:color=red	!	!	!	!
.	.	8B-'\	.	8B-'/	.	.	.	.	.	8B-/|<	.	.	.	.
!	!	!	!	!	!	!	!	!	!	!LO:ART:color=red	!	!	!	!
.	.	8A-'\	.	8A-'/	.	8d-X'/L	.	8b-L 8g-X'/	.	8A-/|<	.	.	.	.
!	!	!	!	!	!	!	!	!	!	!LO:ART:color=red	!	!	!	!
.	.	8G-X'\	.	8G-'/	.	8d-'/	.	8b- 8g-'/	.	8G-/|<	.	.	4d-X\	.
.	.	8F'\J	.	8F'/J	.	8d-'/J	.	8b-J 8g-'/	.	8F/J	.	.	.	.
!!LO:PB:g=original
=42	=42	=42	=42	=42	=42	=42	=42	=42	=42	=42	=42	=42	=42	=42
!	!	!LO:ART:color=red	!	!LO:ART:color=red	!	!	!	!	!	!	!	!	!	!
!	!	!LO:S:color=red	!	!LO:S:color=red	!	!	!	!	!	!	!	!	!	!
2.En\	.	(8En^<\L	.	(8En^>/L	.	2.g#X^/	.	2bn 2dn^/	.	(<8En/L	2.EEn\	2bn/	2g#X 2d\	.
.	.	8D#X\	.	8D#X/	.	.	.	.	.	8D#X/	.	.	.	.
.	.	8E\)	.	8E/)	.	.	.	.	.	8E/)	.	.	.	.
.	.	8BBn'\	.	8Bn'/	.	.	.	.	.	8BBn'</	.	.	.	.
.	.	8GG#X'\	.	8G#X'/	.	.	.	4b#X/	.	8GG#X'</	.	4b#X/	4ryy	.
.	.	8EEn'\J	.	8E'/J	.	.	.	.	.	8E'</J	.	.	.	.
=43	=43	=43	=43	=43	=43	=43	=43	=43	=43	=43	=43	=43	=43	=43
4AAn/	.	(8AAn\L	.	(8An/L	.	8an/	<	8cc#X\	<	(<8AAn/L	2.AA\	2.cc#X 2.an/	8c#X\L	.
.	.	8En\	.	8En/	.	4a/	.	4cc#\	.	8En/	.	.	8en\J	.
4An\	.	8An\)	.	8A/)	.	.	.	.	.	8An/)	.	.	2e\	.
.	.	(8c#X\	.	8c#X'/	.	4a/	.	4cc#\	.	8c#X'</	.	.	.	.
4A\	.	8Bn\	.	8Bn'/	.	.	.	.	[	8Bn'</	.	.	.	.
.	.	8A\J)	.	8A'/J	.	8a/	[[	8cc#\	.	8A'</J	.	.	.	.
=44	=44	=44	=44	=44	=44	=44	=44	=44	=44	=44	=44	=44	=44	=44
*	*	*	*	*	*	*	*	*	*	*	*	*	*^	*
!	!	!LO:ART:color=red	!	!LO:ART:color=red	!	!	!	!	!	!	!	!	!	!	!
!	!	!LO:S:color=red	!	!LO:S:color=red	!	!	!	!	!	!	!	!	!	!	!
(8A-X^\L	.	(8A-X^\L	.	(8A-X^/L	.	8bn/L	.	8dd\	.	(<8A-X/L	2AA-X\	2.dd/	(>4bn\	2.f\	.
8G\J	.	8G\	.	8G/	.	(8b/	.	4dd\	.	8G/	.	.	.	.	.
4A-\)	.	8A-\)	.	8A-/)	.	8g#X/)	.	.	.	8A-/)	.	.	4g#X\	.	.
!	!	!LO:ART:color=red	!	!LO:ART:color=red	!	!	!	!	!	!	!	!	!	!	!
.	.	8c-X\|	.	8c-X/|	.	(8g#/	.	4dd\	.	8c-X'</	.	.	.	.	.
!	!	!LO:ART:color=red	!	!LO:ART:color=red	!	!	!	!	!	!	!	!	!	!	!
8B-\L	.	8B-\|	.	8B-/|	.	8b-X/)	.	.	.	8B-X'</	8BB-X\L	.	[>4b-X\)	.	.
!	!	!LO:ART:color=red	!	!LO:ART:color=red	!	!	!	!	!	!	!	!	!	!	!
8A-\J	.	8A-\J|	.	8A-/J|	.	8b-/J	.	8dd\	.	8A-'</J	8AA-\J	.	.	.	.
*	*	*	*	*	*	*	*	*	*	*	*	*v	*v	*v	*
=45	=45	=45	=45	=45	=45	=45	=45	=45	=45	=45	=45	=45	=45
!	!	!LO:ART:color=red	!	!LO:ART:color=red	!	!	!	!	!	!	!	!	!
!	!	!LO:S:color=red	!	!LO:S:color=red	!	!	!	!	!	!	!	!	!
(8G^\L	f	(8G^\L	f	(8G^/L	f	8b-X/	.	8ee-X\	.	(<8G/L	(>8GG\L	4.ee-X 4.b-] 4.e-X/	.
8F#X\	.	8F#X\	.	8F#X/	.	4b-/	f	4ee-\	.	8F#X/	8FF#X\	.	.
8G\)	.	8G\)	.	8G/)	.	.	.	.	.	8G/)	8GG\)	.	.
!	!	!	!	!LO:ART:color=red	!	!LO:S:color=red	!	!LO:S:color=red	!	!	!	!	!
8E-\|	.	8E-\|	.	8E-/|	.	(8g/L	.	(8ee-\L	f	8E-'</	8EE-\	8ee-L 8b- 8g'/	.
!	!	!	!	!LO:ART:color=red	!	!	!	!	!	!	!	!	!
8Fn\|	.	8Fn\|	.	8Fn/|	.	8a-/)	.	8dd\)	.	8Fn'</	8FFn\	8dd 8b- 8f'/	.
!	!	!	!	!LO:ART:color=red	!	!LO:ART:color=red	!	!LO:ART:color=red	!	!	!	!	!
8G\J|	.	8G\J|	.	8G/J|	.	8b-/J|	.	8ee-\J|	.	8G'</J	8GG\J	8ee-J 8b- 8e-'/	.
=46	=46	=46	=46	=46	=46	=46	=46	=46	=46	=46	=46	=46	=46
*	*	*	*	*	*	*	*	*	*	*	*	*^	*
8A-\L	.	8A-\L	.	8A-/L	.	8a-/L	.	8ff\L	.	8A-/L	4AA-\	(<8ff/L	4f\	.
8F\J	.	8F\J	.	8F/J	.	8a-/J	.	8cc\J	.	8F/J	.	8cc/J)	.	.
*	*	*	*	*	*	*	*	*2\right	*	*	*	*	*	*
!	!	!	!	!	!	!	!	!	!	!	!	!LO:TX:a:t=P:problem:wytarte łuki	!	!
4B-\	.	4B-\	.	2B-/	.	2a-/	.	2dd\	.	4B-/	4BB-\	2dd/	2a- 2f\	.
4BB-/	.	4BB-/	.	.	.	.	.	.	.	4B-/	[4BB-\	.	.	.
*	*	*	*	*	*	*	*	*	*	*	*	*v	*v	*
=47	=47	=47	=47	=47	=47	=47	=47	=47	=47	=47	=47	=47	=47
*	*	*	*	*	*	*	*	*	*	*	*^	*	*
8E-\	.	8E-\	.	8E-/	.	8g/	.	8ee-\	.	8EE-/L	4EE-\	2.BB-/]	4.ee- 4.g 4.e-/	.
8r	.	4E-\	.	4E-/	.	4B-/	.	4e- 4G/	.	8E-/	.	.	.	.
8E-\	.	.	.	.	.	.	.	.	.	8EE-/	4EE-\	.	.	.
!	!	!	!	!	!LO:HP:t=diminuendo	!	!	!LO:TX:b:t=di-mi-nu-en-do.:problem:dynamics with extention lines	!LO:HP:b:t=di-mi-nu-en-do.	!	!	!	!	!
8r	.	4E-\	.	4E-/	>	4B-/	.	4e- 4G/	>	8E-/	.	.	8ee-L 8g 8e-'/	.
!	!	!	!	!	!	!	!	!	!	!	!	!	!LO:TX:t=di-mi-nu-en-do.:problem:dynamics with extention lines	!LO:HP:a:t=di-mi-nu-en-do.
8E-\	.	.	.	.	.	.	.	.	.	8EE-/	4EE-\	.	8ee- 8g 8e-'/	>
!	!	!	!LO:HP:t=diminuendo	!	!	!	!LO:HP:t=diminuendo	!	!	!	!	!	!	!
8ryy	.	8E-\	>	8E-/	.	[8B-/	>	8e- 8G/	.	8E-/J	.	.	8ee-J 8g 8e-'/	.
=48	=48	=48	=48	=48	=48	=48	=48	=48	=48	=48	=48	=48	=48	=48
*rep	*	*rep	*	*rep	*	*	*	*	*	*rep	*rep	*rep	*	*
8E-\	.	8E-\	.	8E-/	.	8B-/]	.	8g 8G/	.	8EE-/L	4EE-\	2.BB-/	4ee- 4g 4e-/	.
8r	.	4E-\	.	4E-/	.	4e- 4B-/	.	4g 4G/	.	8E-/	.	.	.	.
8E-\	.	.	.	.	.	.	.	.	.	8EE-/	4EE-\	.	8b-L 8g 8d/	.
8r	.	4E-\	.	4E-/	.	4e- 4B-/	.	4g 4G/	.	8E-/	.	.	8b- 8g 8B-/	.
!	!	!	!	!	!	!	!	!	!	!	!	!	!LO:TX:a:t=P:problem:brak nut	!
8E-\	.	.	.	.	.	.	.	.	.	8EE-/	4EE-\	.	8b- 8g 8B-/	.
!	!	!	!	!	!	!	!	!	!	!	!	!	!LO:TX:a:t=P:problem:brak nut	!
8ryy	.	8E-\	.	8E-/	.	[8e- [8B-/	.	(8g (8G/	.	8E-/J	.	.	8b-J 8g 8B-/	.
*Xrep	*	*Xrep	*	*Xrep	*	*	*	*	*	*Xrep	*Xrep	*Xrep	*	*
=49	=49	=49	=49	=49	=49	=49	=49	=49	=49	=49	=49	=49	=49	=49
*rep	*	*rep	*	*	*	*	*	*	*	*rep	*rep	*rep	*	*
8E-\	.	8E-\	.	8E-/	.	8e-] 8B-/]	.	8b- 8g/))	.	8EE-/L	4EE-\	2.BB-/	4b- 4g 4B-/	.
8r	.	4E-\	.	4E-/	.	4e- 4B-/	.	4b- 4g/	.	8E-/	.	.	.	.
8E-\	.	.	.	.	.	.	.	.	.	8EE-/	4EE-\	.	8g 8e- 8B-/	.
8r	.	4E-\	.	8B-'/L	.	8e-'/L	.	8g/L	.	8E-/	.	.	8gL 8G/	.
8E-\	.	.	.	8G'/	.	8e-'/	.	8e-/	.	8EE-/	4EE-\	.	8e- 8G/	.
8ryy	.	8E-\	.	8A-'/J	.	8e-'/J	.	8f/J	]]	8E-/J	.	.	8fJ 8e- 8A-/	]]
*Xrep	*	*Xrep	*	*	*	*	*	*	*	*Xrep	*Xrep	*Xrep	*	*
*	*	*	*	*	*	*	*	*	*	*	*v	*v	*	*
=50	=50	=50	=50	=50	=50	=50	=50	=50	=50	=50	=50	=50	=50
*	*	*	*	*	*	*	*	*	*	*	*	*^	*
4E-\	.	4E-\	.	4B-/	.	4e-/	.	4g/	.	8EE-/	8EE-\	8g/	8e-\	.
.	.	.	.	.	.	.	.	.	.	8r	8ryy	8r	8ryy	.
4r;	.	4r;	.	4r;	.	4r;	.	4r;	.	2G; 2E-/	2EE-\	4.b-;/	2e-\	.
4r	.	4r	.	4r	.	4r	.	4r	.	.	.	.	.	.
.	.	.	.	.	.	.	.	.	.	.	.	8g/	.	.
*	*	*	*	*	*	*	*	*	*	*	*	*v	*v	*
=51	=51	=51	=51	=51	=51	=51	=51	=51	=51	=51	=51	=51	=51
2.r;	.	2.r;	.	2.r;	.	2.r;	.	2.r;	.	2BB-/	2EE-\	2.e- 2.G;/	.
.	.	.	.	.	.	.	.	.	.	4ryy	4ryy	.	.
*	*	*	*	*	*	*	*	*	*	*v	*v	*	*
==	==	==	==	==	==	==	==	==	==	==	==	==
*-	*-	*-	*-	*-	*-	*-	*-	*-	*-	*-	*-	*-
!!!system-decoration: [({s1,s2}s3,s4,s5,s6,s7)]
!!!RDF**kern: > = above
!!!RDF**kern: < = below
!!!RDF**kern: | = vertical stroke
!!!AIN: 1 cbass 1 cello 2 organ 1 viola 2 violn
!!!ENC: Marta Lawrence
!!!END: 2021-07-14
!!!ENC: Marcin Jachim
!!!END: 2021-07-08
